!!!COM: Mozart
!!!OTL: Sechs Variationen in F uber die Arie 'Salve tu, Domine' aus der Oper 'I filosofi immaginarii' 
!!!Variation: Theme a
**function	**harm	**kern	**kern
*	*	*clefF4	*clefG2
*M3/4	*M3/4	*M3/4	*M3/4
*	*	*k[b-]	*k[b-]
*F:	*F:	*F:	*F
=1-	=1-	=1-	=1-
2.T	2.I	8FFL	4a 4cc
.	.	8FJ	.
.	.	8FL	4.a 4.cc
.	.	8FJ	.
.	.	8FL	.
.	.	8FJ	8b- 8dd
=2	=2	=2	=2
2.T	2.I	8FL	4.a 4.cc
.	.	8FJ	.
.	.	8FL	.
.	.	8FJ	8g 8b-
.	.	8FL	4f 4a
.	.	8FJ	.
=3	=3	=3	=3
2.T	2.I	8FL	4c 4a
.	.	8FJ	.
.	.	8FL	4.c 4.a
.	.	8FJ	.
.	.	8FL	.
.	.	8FJ	8d 8b-
=4	=4	=4	=4
2.T	2.I	8FL	4.c 4.a
.	.	8FJ	.
.	.	8FL	.
.	.	8FJ	8B- 8g
.	.	8FL	4A 4f
.	.	8FJ	.
=5	=5	=5	=5
2.T	2.V	8CCL	4e 4g
.	.	8CJ	.
.	.	8CL	4e 4g
.	.	8CJ	.
.	.	8CL	4e 4g#
.	.	8CJ	.
=6	=6	=6	=6
2.T	2.Ic	8CL	4.f 4.a
.	.	8CJ	.
.	.	8CL	.
.	.	8CJ	8e 8g#
.	.	8CL	4f 4a
.	.	8CJ	.
=7	=7	=7	=7
2.T	2.Ic	8CCL	4f 4a
.	.	8CJ	.
.	.	8CL	4f 4a
.	.	8CJ	.
.	.	8CL	4f# 4a
.	.	8CJ	.
=8	=8	=8	=8
2.T	2.V7	8CL	4.g 4.b-
.	.	8CJ	.
.	.	8CL	.
.	.	8CJ	8f# 8a
.	.	8CL	4g 4b-
.	.	8CJ	.
=9	=9	=9	=9
*	*	*	*^
4T	4I	4F	8.aL	4f
.	.	.	16ccJk	.
4T	4Ib	8AAL 8F	8cL 8f	4r
.	.	8AAJ 8F	8cJ 8f	.
4T	4V	8CL 8G	8eL 8g	4r
.	.	8CJ 8G	8eJ 8g	.
=10	=10	=10	=10	=10
4T	4I	4F 4A	8.aL	4f
.	.	.	16ccJk	.
4T	4Ib	8AAL 8F	8cL 8f	4r
.	.	8AAJ 8F	8cJ 8f	.
4T	4V	8CL 8G	8eL 8g	4r
.	.	8CJ 8G	8eJ 8g	.
*	*	*	*v	*v
=11	=11	=11	=11
4T	4I	4F 4A	8.aL
.	.	.	16ffJk
4P	4iib	4BB-	8.gL
.	.	.	16ddJk
4D	4V	4C	8.ccL
.	.	.	16eJk
=12	=12	=12	=12
4.T	4.I	4FF	4f
.	.	[8F	8r
*-	*-	*-	*-
!!!COM: Mozart
!!!OTL: Sechs Variationen in F uber die Arie 'Salve tu, Domine' aus der Oper 'I filosofi immaginarii' 
!!!Variation: Theme b
**function	**harm	**kern	**kern
*	*	*clefF4	*clefG2
*	*	*3/4	*3/4
*	*	*k[b-]	*k[b-]
*F:	*F:	*F:	*F
8T	8I	8F]	(8f
8T	8Vb	4r	8eL 8g
8T	8V7d/IV	.	8e-J) 8a
=13	=13	=13	=13
*	*	*^	*
.	.	.	.	(q32cc
2.T	2.IVc	(2d	[2.F	(8b-L)
.	.	.	.	8aJ
.	.	.	.	8b-L
.	.	.	.	8ddJ
.	.	4e)	.	8ccL
.	.	.	.	8b-J)
=14	=14	=14	=14	=14
2.T	2.I	4f	4F]	8g#L
.	.	.	.	8aJ
.	.	8F'L	4r	8r
.	.	(8FJ	.	(8a
.	.	8GL	4r	8b-L
.	.	8AJ)	.	8ccJ)
=15	=15	=15	=15	=15
.	.	.	.	(q32ee-
2.T	2.IVc	(8B-L	[2.F	(8ddL)
.	.	8AJ	.	8cc#J
.	.	8B-L	.	8ddL
.	.	8dJ	.	8ffJ
.	.	8cL	.	8eeL
.	.	8B-J)	.	8ddJ)
=16	=16	=16	=16	=16
4T	4IVc	8.dL	4F]	8.ffL
.	.	16B-Jk	.	16ddJk
2T	2I	4A	4F	4cc
.	.	4r	4r	4r
*	*	*v	*v	*
=17	=17	=17	=17
*	*	*	*^
2.D	2.V	4CC 4C	(8.ccL	4e 4g
.	.	.	16eeJk)	.
.	.	4EE 4E	8g'L	4r
.	.	.	8g'J	.
.	.	4GG 4G	8r	4r
.	.	.	8f 8b	.
=18	=18	=18	=18	=18
4D	4V	4C 4c	(8.ccL	4e 4g
.	.	.	16eeJk)	.
4D	4Vb	4EE 4E	8g'L	4r
.	.	.	8g'J	.
4D	4V7/V	4GG 4G	8r	4r
.	.	.	8f 8b	.
=19	=19	=19	=19	=19
4D	4V	4C 4c	8ccL	4e
.	.	.	(16eeL	.
.	.	.	16ggJJ)	.
*	*	*	*v	*v
4D	4Vb	4EE 4E	8g'L
.	.	.	8g'J
4D	4V7/V	4GG 4G	8r
.	.	.	8f 8b
=20	=20	=20	=20
2.D	2.V	4.CC; 4.C;	4.e; 4.cc;
.	.	(8A'	(8cc#'
.	.	8B-'L	8dd'L
.	.	8A'J)	8cc'J)
=21	=21	=21	=21
2.D	2.V7	(8G'L	(8b-'L
.	.	8F'J	8a'J
.	.	8E'L	8g'L
.	.	8G'J	8b-'J
.	.	8F'L	8a'L
.	.	8E'J)	8g'J)
=22	=22	=22	=22
2.T	2.I	4F	8B-L 8e
.	.	.	8AJ 8f
.	.	4FF	4A 4f
.	.	4r	4r
*-	*- 	*-	*-
!!!COM: Mozart
!!!OTL: Sechs Variationen in F uber die Arie 'Salve tu, Domine' aus der Oper 'I filosofi immaginarii' 
!!!Variation: Variation 1a
**function	**harm	**kern	**kern
*	*	*clefF4	*clefG2
*	*	*k[b-]	*k[b-]
*M3/4	*M3/4	*M3/4	*M3/4
*F:	*F:	*F:	*F
=23	=23	=23	=23
2.T	2.I	4F	16ccLL
.	.	.	16a
.	.	.	16f
.	.	.	16aJJ
.	.	4FF	16ccLL
.	.	.	16a
.	.	.	16f
.	.	.	16aJJ
.	.	8r	16ccLL
.	.	.	16a
.	.	8F	16dd
.	.	.	16b-JJ
=24	=24	=24	=24
2.T	2.I	4F	16ccLL
.	.	.	16a
.	.	.	16f
.	.	.	16aJJ
.	.	4FF	16ccLL
.	.	.	16a
.	.	.	16b-
.	.	.	16gJJ
.	.	4r	16aLL
.	.	.	16f
.	.	.	16c
.	.	.	16fJJ
=25	=25	=25	=25
2.T	2.I	4F	16aLL
.	.	.	16f
.	.	.	16c
.	.	.	16fJJ
.	.	4FF	16aLL
.	.	.	16f
.	.	.	16c
.	.	.	16fJJ
.	.	8r	16aLL
.	.	.	16c
.	.	8F	16b-
.	.	.	16dJJ
=26	=26	=26	=26
2.T	2.I	4F	16aLL
.	.	.	16f
.	.	.	16c
.	.	.	16fJJ
.	.	4FF	16aLL
.	.	.	16c
.	.	.	16g
.	.	.	16B-JJ
.	.	4r	16fLL
.	.	.	16A
.	.	.	16f#
.	.	.	16AJJ
=27	=27	=27	=27
2.T	2.V	4C	16gLL
.	.	.	16e
.	.	.	16c
.	.	.	16eJJ
.	.	4CC	16gLL
.	.	.	16e
.	.	.	16c
.	.	.	16eJJ
.	.	8r	16gLL
.	.	.	16e
.	.	8C	16g#
.	.	.	16eJJ
=28	=28	=28	=28
2.T	2.Ic	4C	16aLL
.	.	.	16f
.	.	.	16c
.	.	.	16fJJ
.	.	4CC	16aLL
.	.	.	16f
.	.	.	16g#
.	.	.	16eJJ
.	.	4r	16aLL
.	.	.	16f
.	.	.	16g#
.	.	.	16eJJ
=29	=29	=29	=29
2.T	2.Ic	4C	16aLL
.	.	.	16f
.	.	.	16c
.	.	.	16fJJ
.	.	4CC	16aLL
.	.	.	16f
.	.	.	16c
.	.	.	16fJJ
.	.	8r	16aLL
.	.	.	16f
.	.	8C	16a
.	.	.	16f#JJ
=30	=30	=30	=30
2.T	2.V7	4C	16b-LL
.	.	.	16g
.	.	.	16c
.	.	.	16gJJ
.	.	4CC	16b-LL
.	.	.	16g
.	.	.	16a
.	.	.	16f#JJ
.	.	4r	16b-LL
.	.	.	16g
.	.	.	16b-
.	.	.	16g#JJ
=31	=31	=31	=31
4T	4I	8FF 8F	16aLL
.	.	.	(16ccc
.	.	8r	16aa
.	.	.	16ffJJ)
4T	4Ib	8AA 8A	16ccLL
.	.	.	16ff
.	.	8r	16cc
.	.	.	16aJJ
4T	4V	8C 8c	16gLL
.	.	.	16cc
.	.	8r	16b-
.	.	.	16g#JJ
=32	=32	=32	=32
4T	4I	8FF 8F	16aLL
.	.	.	(16ccc
.	.	8r	16aa
.	.	.	16ffJJ)
4T	4Ib	8AA 8A	16ccLL
.	.	.	16ff
.	.	8r	16cc
.	.	.	16aJJ
4T	4V	8C 8c	16gLL
.	.	.	16cc
.	.	8r	16b-
.	.	.	16g#JJ
=33	=33	=33	=33
4T	4I	4FF 4F	16aLL
.	.	.	16ff
.	.	.	16cc
.	.	.	16aJJ
4P	4iib	4BB- 4G	16gLL
.	.	.	16dd
.	.	.	16b-
.	.	.	16gJJ
4D	4V7	4C 4B-	16eLL
.	.	.	16b-
.	.	.	16g
.	.	.	16eJJ
=34	=34	=34	=34
4T	4I	4F 4A	4f
*-	*-	*-	*-
!!!COM: Mozart
!!!OTL: Sechs Variationen in F uber die Arie 'Salve tu, Domine' aus der Oper 'I filosofi immaginarii' 
!!!Variation: Variation 1b
**function	**harm	**kern	**kern
*	*	*clefF4	*clefG2
*	*	*k[b-]	*k[b-]
*M3/4	*M3/4	*M3/4	*M3/4
*F:	*F:	*F:	*F
4T	4I	4FF	16r
.	.	.	(16fLL
.	.	.	16e
.	.	.	16fJJ
4.P	4V7d/IV	4F 4e-	16f#LL
.	.	.	16g
.	.	.	16g#
.	.	.	16aJJ)
=35	=35	=35	=35
*	*	*^	*
2P	2IVc	2d	2.F	(16b-LL
.	.	.	.	16cc
.	.	.	.	16b-
.	.	.	.	16aJJ
.	.	.	.	16b-LL
.	.	.	.	16cc
.	.	.	.	16dd
.	.	.	.	16ccJJ
4P	4V7b	4e	.	16eeLL
.	.	.	.	16dd
.	.	.	.	16cc
.	.	.	.	16b-JJ)
*	*	*v	*v	*
=36	=36	=36	=36
2.P	2.I	4f	(16ccLL
.	.	.	16b-
.	.	.	16a
.	.	.	16b-JJ
.	.	16r	16aLL
.	.	(16FLL	16a
.	.	16E	16g#
.	.	16FJJ	16aJJ
.	.	16G-LL	16b-LL
.	.	16G	16b
.	.	16A-	16cc
.	.	16AJJ)	16cc#JJ)
=37	=37	=37	=37
2.P	2.IV	(16B-LL	(16ddLL
.	.	16c	16ee
.	.	16B-	16dd
.	.	16AJJ	16cc#JJ
.	.	16B-LL	16ddLL
.	.	16c	16ee
.	.	16d	16ff
.	.	16cJJ	16eeJJ
.	.	16eLL	16ggLL
.	.	16d	16ff
.	.	16c	16ee
.	.	16B-JJ)	16ddJJ)
=38	=38	=38	=38
*	*	*^	*
4P	4IVc	(16dLL	2F	16ffLL
.	.	16B-	.	16dd
.	.	16d	.	16ff
.	.	16B-JJ)	.	16ddJJ
2P	2I	4A	.	4cc
.	.	4r	4r	4r
*	*	*v	*v	*
=39	=39	=39	=39
*	*	*	*^
4D	4V	16CCLL	(8.ccL	4e 4g
.	.	16C	.	.
.	.	16BB	.	.
.	.	16CJJ	16eeJk)	.
4D	4Vb	16EELL	8g'L	4r
.	.	16E	.	.
.	.	16D#	8g'J	.
.	.	16EJJ	.	.
4D	4V7/V	16GGLL	8r	4r
.	.	16G	.	.
.	.	16F#	8f 8b	.
.	.	16GJJ	.	.
=40	=40	=40	=40	=40
4D	4V	16CLL	(8.ccL	4e 4g
.	.	16c	.	.
.	.	16B	.	.
.	.	16cJJ	16eeJk)	.
4D	4Vb	16ELL	8g'L	4r
.	.	16e	.	.
.	.	16d#	8g'J	.
.	.	16eJJ	.	.
4D	4V7/V	16GGLL	8r	4r
.	.	16G	.	.
.	.	16F#	8f 8b	.
.	.	16GJJ	.	.
=41	=41	=41	=41	=41
4D	4V	16CLL	(8.ccL	4e
.	.	16c	.	.
.	.	16B	.	.
.	.	16cJJ	32eeLL	.
.	.	.	32ggJJJ)	.
*	*	*	*v	*v
4D	4Vb	16EELL	8g'L
.	.	16E	.
.	.	16D#	8g'J
.	.	16EJJ	.
4D	4V7/V	16GGLL	8r
.	.	16G	.
.	.	16F#	8f 8b
.	.	16GJJ	.
=42	=42	=42	=42
2.D	2.V	4.CC; 4.C;	4.e; 4.cc;
.	.	(8A'	16r
.	.	.	(16cc#'
.	.	8B-'L	16r
.	.	.	16dd'
.	.	8A'J)	16r
.	.	.	16cc')
=43	=43	=43	=43
2.D	2.V7b	8G'L	16r
.	.	.	16b-'
.	.	8F'J	16r
.	.	.	16a'
.	.	8E'L	16r
.	.	.	16g'
.	.	8G'J	16r
.	.	.	16b-'
.	.	8F'L	16r
.	.	.	16a'
.	.	8E'J	16r
.	.	.	16g'
=44	=44	=44	=44
2.T	2.I	4F	8BL 8e
.	.	.	8AJ 8f
.	.	4FF	4A 4f
.	.	4r	4r
*-	*-	*-	*-
!!!COM: Mozart
!!!OTL: Sechs Variationen in F uber die Arie 'Salve tu, Domine' aus der Oper 'I filosofi immaginarii' 
!!!Variation: Variation 2a
**function	**harm	**kern	**kern
*	*	*clefF4	*clefG2
*	*	*k[b-]	*k[b-]
*M3/4	*M3/4	*M3/4	*M3/4
*F:	*F:	*F:	*F
=45	=45	=45	=45
2.T	2.I	16FF 16F	16r
.	.	16r	16aa 16ccc
.	.	16f	16r
.	.	16r	16a 16cc
.	.	16FF 16F	16r
.	.	16r	16aa 16ccc
.	.	16f	16r
.	.	16r	16a 16cc
.	.	16f	16r
.	.	16r	16aa 16ccc
.	.	16f	16r
.	.	16r	16bb- 16ddd
=46	=46	=46	=46
2.T	2.I	16FF 16F	16r
.	.	16r	16aa 16ccc
.	.	16f	16r
.	.	16r	16a 16cc
.	.	16f	16r
.	.	16r	16aa 16ccc
.	.	16f	16r
.	.	16r	16gg 16bb-
.	.	16f	16r
.	.	16r	16ff 16aa
.	.	16f	16r
.	.	16r	16a 16cc
=47	=47	=47	=47
2.T	2.I	16FF 16F	16r
.	.	16r	16cc 16aa
.	.	16f	16r
.	.	16r	16a 16cc
.	.	16FF 16F	16r
.	.	16r	16cc 16aa
.	.	16f	16r
.	.	16r	16a 16cc
.	.	16f	16r
.	.	16r	16cc 16aa
.	.	16f	16r
.	.	16r	16dd 16bb-
=48	=48	=48	=48
2.T	2.I	16FF 16F	16r
.	.	16r	16cc 16aa
.	.	16f	16r
.	.	16r	16a 16cc
.	.	16f	16r
.	.	16r	16cc 16aa
.	.	16f	16r
.	.	16r	16b- 16gg
.	.	16f	16r
.	.	16r	16a 16ff
.	.	16f	16r
.	.	16r	16a 16ff
=49	=49	=49	=49
2.T	2.V	16CC 16C	16r
.	.	16r	16ee 16gg
.	.	16c	16r
.	.	16r	16e 16g
.	.	16CC 16C	16r
.	.	16r	16ee 16gg
.	.	16c	16r
.	.	16r	16e 16g
.	.	16c	16r
.	.	16r	16ee 16gg
.	.	16c	16r
.	.	16r	16ee 16gg#
=50	=50	=50	=50
2.T	2.Cc	16CC 16C	16r
.	.	16r	16ff 16aa
.	.	16c	16r
.	.	16r	16f 16a
.	.	16c	16r
.	.	16r	16ff 16aa
.	.	16c	16r
.	.	16r	16ee 16gg#
.	.	16c	16r
.	.	16r	16ff 16aa
.	.	16c	16r
.	.	16r	16ee 16gg#
=51	=51	=51	=51
2.T	2.Cc	16CC 16C	16r
.	.	16r	16ff 16aa
.	.	16c	16r
.	.	16r	16f 16a
.	.	16CC 16C	16r
.	.	16r	16ff 16aa
.	.	16c	16r
.	.	16r	16f 16a
.	.	16c	16r
.	.	16r	16ff 16aa
.	.	16c	16r
.	.	16r	16ff# 16aa
=52	=52	=52	=52
2.T	2.V7	16CC 16C	16r
.	.	16r	16gg 16bb-
.	.	16c	16r
.	.	16r	16g 16b-
.	.	16c	16r
.	.	16r	16gg 16bb-
.	.	16c	16r
.	.	16r	16ff# 16aa
.	.	16c	16r
.	.	16r	16gg 16bb-
.	.	16c	16r
.	.	16r	16ee 16gg#
=53	=53	=53	=53
4T	4I	16FF	16r
.	.	16r	16ff 16aa
.	.	16F	16r
.	.	16r	16cc 16ccc
4T	4Ib	16AA	16r
.	.	16r	16f 16ff
.	.	16A	16r
.	.	16r	16f# 16ff#
4T	4V	16C	16r
.	.	16r	16g 16gg
.	.	16c	16r
.	.	16r	16g# 16gg#
=54	=54	=54	=54
4T	4I	16FF	16r
.	.	16r	16a 16aa
.	.	16F	16r
.	.	16r	16cc 16ccc
4T	4Ib	16AA	16r
.	.	16r	16f 16ff
.	.	16A	16r
.	.	16r	16f# 16ff#
4T	4V	16C	16r
.	.	16r	16g 16gg
.	.	16c	16r
.	.	16r	16g# 16gg#
=55	=55	=55	=55
4T	4I	16FF 16F	16r
.	.	16r	16a 16aa
.	.	16AA	16r
.	.	16r	16cc 16ff
4P	4ii7	16BB-	16r
.	.	16r	16f 16dd
.	.	16GG	16r
.	.	16r	16g 16b-
4D	4V7	16C	16r
.	.	16r	16B- 16g
.	.	16CC	16r
.	.	16r	16G 16e
=56	=56	=56	=56
4T	4I	16r	4A 4f
.	.	16FFLL	.
.	.	16AA	.
.	.	16CJJ	.
*-	*-	*-	*-
!!!COM: Mozart
!!!OTL: Sechs Variationen in F uber die Arie 'Salve tu, Domine' aus der Oper 'I filosofi immaginarii' 
!!!Variation: Variation 2b
**function	**harm	**kern	**kern
*	*	*clefF4	*clefG2
*	*	*k[b-]	*k[b-]
*M3/4	*M3/4	*M3/4	*M3/4
*F:	*F:	*F:	*F
*	*	*^	*
4T	4I	4r	2F	12r
.	.	.	.	(12fL
.	.	.	.	12eJ
4P	4V7d/IV	4e-	.	12fL
.	.	.	.	12g
.	.	.	.	12aJ)
=57	=57	=57	=57	=57
2.P	2.IVc	2d	2.F	(12b-L
.	.	.	.	12cc
.	.	.	.	12aJ
.	.	.	.	12b-L
.	.	.	.	12dd
.	.	.	.	12ccJ
.	.	4e	.	12ddL
.	.	.	.	12cc
.	.	.	.	12b-J)
=58	=58	=58	=58	=58
2.P	2.I	4f	4F	(12b-L
.	.	.	.	12a
.	.	.	.	12g#J)
*	*	*v	*v	*
.	.	12r	12a'L
.	.	(12FL	(12a
.	.	12EJ	12g#J
.	.	12FL	12aL
.	.	12G	12b-
.	.	12AJ)	12ccJ)
=59	=59	=59	=59
2.P	2.IV	12B-'L	12dd'L
.	.	(12c	(12ee
.	.	12AJ	12cc#J
.	.	12B-L	12ddL
.	.	12d	12ff
.	.	12c#J	12eeJ
.	.	12dL	12ffL
.	.	12c#	12ee
.	.	12B-J)	12ddJ)
=60	=60	=60	=60
*	*	*^	*
4P	4IV	(12B-L	2F	(12ddL
.	.	12A	.	12cc
.	.	12G#J)	.	12bJ)
2P	2Ib	4A	.	4cc
*	*	*v	*v	*
.	.	4r	4r
=61	=61	=61	=61
*	*	*	*^
2.D	2.V	12CCL	(8.ccL	4e 4g
.	.	(12BB	.	.
.	.	12CJ)	.	.
.	.	.	16eeJk)	.
.	.	12EEL	8g'L	4r
.	.	(12D#	.	.
.	.	.	8g'J	.
.	.	12EJ)	.	.
.	.	12GGL	8r	4r
.	.	(12F#	.	.
.	.	.	8f 8b	.
.	.	12GJ)	.	.
=62	=62	=62	=62	=62
4D	4V	12CL	(8.ccL	4e 4g
.	.	(12B	.	.
.	.	12cJ)	.	.
.	.	.	16eeJk)	.
4D	4Vb	12EL	8g'L	4r
.	.	(12d#	.	.
.	.	.	8g'J	.
.	.	12eJ)	.	.
4D	4V7/V	12GGL	8r	4r
.	.	(12F#	.	.
.	.	.	8f 8b	.
.	.	12GJ)	.	.
=63	=63	=63	=63	=63
4D	4V	12CL	(8.ccL	4e
.	.	(12B	.	.
.	.	12cJ)	.	.
.	.	.	16eeJk)	.
*	*	*	*v	*v
4D	4Vb	12EEL	8gg'L
.	.	(12D#	.
.	.	.	8gg'J
.	.	12EJ)	.
4D	4V7/V	12GGL	8r
.	.	(12F#	.
.	.	.	8f 8b
.	.	12GJ)	.
=64	=64	=64	=64
4D	4V	4CC; 4C;	4e; 4g; [4cc;
4D	4Vb	8r	(16ccLL]
.	.	.	16cc#
.	.	(8A	16ccc#
.	.	.	16cc#JJ)
4D	4V7/V	8B-L	(16dddLL
.	.	.	16dd
.	.	8AJ)	16ccc
.	.	.	16ccJJ)
=65	=65	=65	=65
*	*	*^	*
2.D	2.V	(8GL	2.C	(16bb-LL
.	.	.	.	16b-
.	.	8FJ	.	16aa
.	.	.	.	16aJJ
.	.	8EL	.	16ggLL
.	.	.	.	16g
.	.	8GJ	.	16bb-
.	.	.	.	16b-JJ
.	.	8FL	.	16aaLL
.	.	.	.	16a
.	.	8EJ)	.	16gg
.	.	.	.	16gJJ)
=66	=66	=66	=66	=66
2.D	2.V7	8B-L	4F	8eL 8ee
.	.	8AJ	.	8fJ 8ff
.	.	4A	4F	4f 4ff
*	*	*v	*v	*
.	.	4r	4r
*-	*- 	*-	*-
!!!COM: Mozart
!!!OTL: Sechs Variationen in F uber die Arie 'Salve tu, Domine' aus der Oper 'I filosofi immaginarii' 
!!!Variation: Variation 3a
**function	**harm	**kern	**kern
*	*	*clefF4	*clefG2
*M3/4	*M3/4	*M3/4	*M3/4
*	*	*k[b-]	*k[b-]
*F:	*F:	*F:	*F
=67	=67	=67	=67
2.T	2.I	16FFLL	4c 4f 4a 4cc
.	.	16F	.
.	.	16A	.
.	.	16FJJ	.
.	.	16CLL	[4a [4cc
.	.	16F	.
.	.	16AA	.
.	.	16CJJ	.
.	.	16FFLL	8.aL] 8.cc]
.	.	16AA	.
.	.	16C	.
.	.	16FJJ	16b-Jk 16dd
=68	=68	=68	=68
2.T	2.I	16FFLL	[4a [4cc
.	.	16F	.
.	.	16A	.
.	.	16FJJ	.
.	.	16CLL	8.aL] 8.cc]
.	.	16F	.
.	.	16AA	.
.	.	16CJJ	16gJk 16b-
.	.	16FFLL	4f 4a
.	.	16AA	.
.	.	16C	.
.	.	16FJJ	.
=69	=69	=69	=69
2.T	2.I	16FFLL	4c 4a
.	.	16F	.
.	.	16A	.
.	.	16FJJ	.
.	.	16CLL	[4c [4a
.	.	16F	.
.	.	16AA	.
.	.	16CJJ	.
.	.	16FFLL	8.cL] 8.a]
.	.	16AA	.
.	.	16C	.
.	.	16FJJ	16dJk 16b-
=70	=70	=70	=70
2.T	2.I	16FFLL	[4c [4a
.	.	16F	.
.	.	16A	.
.	.	16FJJ	.
.	.	16CLL	8.cL] 8.a]
.	.	16F	.
.	.	16AA	.
.	.	16CJJ	16B-Jk 16g
.	.	16FFLL	4A 4f
.	.	16AA	.
.	.	16C	.
.	.	16FJJ	.
=71	=71	=71	=71
2.T	2.V	16CCLL	4G 4c 4e 4g
.	.	16C	.
.	.	16E	.
.	.	16CJJ	.
.	.	16GGLL	4c 4e 4g
.	.	16C	.
.	.	16EE	.
.	.	16GGJJ	.
.	.	16CCLL	4c 4e 4g
.	.	16EE	.
.	.	16GG	.
.	.	16CJJ	.
=72	=72	=72	=72
2.T	2.Ic	16CCLL	4c [4f [4a
.	.	16C	.
.	.	16F	.
.	.	16CJJ	.
.	.	16AALL	8.fL] 8.a]
.	.	16C	.
.	.	16FF	.
.	.	16AAJJ	16eJk 16g#
.	.	16CCLL	4f 4a
.	.	16FF	.
.	.	16AA	.
.	.	16CJJ	.
=73	=73	=73	=73
2.T	2.Ic	16CCLL	4c 4f 4a
.	.	16C	.
.	.	16F	.
.	.	16CJJ	.
.	.	16AALL	4c 4f 4a
.	.	16C	.
.	.	16FF	.
.	.	16AAJJ	.
.	.	16CCLL	4c 4f# 4a
.	.	16FF#	.
.	.	16AA	.
.	.	16CJJ	.
=74	=74	=74	=74
2.T	2.V7	16CCLL	4c 4e [4g [4b-
.	.	16C	.
.	.	16E	.
.	.	16CJJ	.
.	.	16GGLL	8.gL] 8.b-]
.	.	16C	.
.	.	16EE	.
.	.	16GGJJ	16f#Jk 16a
.	.	16CCLL	4g 4b-
.	.	16EE	.
.	.	16GG	.
.	.	16CJJ	.
=75	=75	=75	=75
*	*	*	*^
4T	4I	16FFFLL	8.aL	4f
.	.	16AAA	.	.
.	.	16CC	.	.
.	.	16FFJJ	16ccJk	.
4T	4Ib	16AAALL	8cL 8f	4r
.	.	16CC	.	.
.	.	16FF	8cJ 8f	.
.	.	16AAJJ	.	.
4T	4V	16CCLL	8eL 8g	4r
.	.	16EE	.	.
.	.	16GG	8eJ 8g	.
.	.	16CJJ	.	.
=76	=76	=76	=76	=76
4T	4I	16FFLL	8.aL	4f
.	.	16AA	.	.
.	.	16C	.	.
.	.	16FJJ	16ccJk	.
4T	4Ib	16AALL	8cL 8f	4r
.	.	16C	.	.
.	.	16F	8cJ 8f	.
.	.	16AJJ	.	.
4T	4V	16CLL	8eL 8g	4r
.	.	16E	.	.
.	.	16G	8eJ 8g	.
.	.	16cJJ	.	.
*	*	*	*v	*v
=77	=77	=77	=77
4T	4I	4F	16aLL
.	.	.	16ff
.	.	.	16cc
.	.	.	16aJJ
4P	4iib	4BB- 4G	16gLL
.	.	.	16dd
.	.	.	16b-
.	.	.	16gJJ
4D	4V7	4C 4B-	16eLL
.	.	.	16b-
.	.	.	16g
.	.	.	16eJJ
=78	=78	=78	=78
*	*	*^	*
4.T	4.I	4A	[4.F	8f
.	.	.	.	4ff
.	.	[8c	.	.
*	*	*v	*v	*
*-	*-	*-	*-	*-
!!!COM: Mozart
!!!OTL: Sechs Variationen in F uber die Arie 'Salve tu, Domine' aus der Oper 'I filosofi immaginarii' 
!!!Variation: Variation 3b
**function	**harm	**kern	**kern
*	*	*clefF4	*clefG2
*M3/4	*M3/4	*M3/4	*M3/4
*	*	*k[b-]	*k[b-]
*F:	*F:	*F:	*F
*	*	*^	*
4.P	4.V7d/IV	8c]	4.F]	(8ee-
.	.	4e-	.	8ddL
.	.	.	.	8ccJ)
=79	=79	=79	=79	=79
2P	2IVc	2d	2.F	(8ccL
.	.	.	.	8bJ
.	.	.	.	8b-L)
.	.	.	.	8b-'J
4P	4V7b	4e	.	8b-'L
.	.	.	.	8b-'J
*	*	*v	*v	*
=80	=80	=80	=80
4.P	4.I	8F 8f	8a
.	.	.	q32gg#
.	.	4f	4aa
4.P	4.V	(8e	(8gg
.	.	8dL	8ffL
.	.	8cJ)	8eeJ)
=81	=81	=81	=81
4P	4V7/vi	(8cL	(8eeL
.	.	8AJ)	8cc#J)
2P	2IV	16B-LL	16ddLL
.	.	16c	16ee
.	.	16d	16ff
.	.	16cJJ	16eeJJ
.	.	16eLL	16ggLL
.	.	16d	16ff
.	.	16c	16ee
.	.	16B-JJ	16ddJJ
=82	=82	=82	=82
*	*	*^	*
4P	4IVc	8.dL	2F	8.ffL
.	.	16B-Jk	.	16ddJk
2P	2I	4A	.	4cc
.	.	4r	4r	4r
*	*	*v	*v	*
=83	=83	=83	=83
4D	4V	4CC 4C	16r
.	.	.	(32gLLL
.	.	.	32ccJJ
.	.	.	32eeLL
.	.	.	32gg
.	.	.	32ee
.	.	.	32ccJJJ)
4D	4Vb	4EE 4E	8g
.	.	.	(4g
4D	4V7/V	4GG 4G	.
.	.	.	8f) 8b
=84	=84	=84	=84
4D	4V	4CC 4C	16r
.	.	.	(32gLLL
.	.	.	32ccJJ
.	.	.	32eeLL
.	.	.	32gg
.	.	.	32ee
.	.	.	32ccJJJ)
4D	4Vb	4EE 4E	8g
.	.	.	(4g
4D	4V7/V	4GG 4G	.
.	.	.	8f) 8b
=85	=85	=85	=85
4D	4V	4CC 4C	16r
.	.	.	(32gLLL
.	.	.	32ccJJ
.	.	.	32eeLL
.	.	.	32gg
.	.	.	32ee
.	.	.	32ccJJJ)
4D	4Vb	4EE 4E	8g
.	.	.	(4g
4D	4V7/V	4GG 4G	.
.	.	.	8f) 8b
=86	=86	=86	=86
2.D	2.V	4.C; 4.c;	4.e; 4.cc;
.	.	(8A	8cc#
.	.	8B-L	(16eeLL
.	.	.	16dd)
.	.	8AJ)	(16dd
.	.	.	16ccJJ)
=87	=87	=87	=87
*	*	*^	*
2.D	2.V7	(8GL	2.C	(16ccLL
.	.	.	.	16b-)
.	.	8FJ	.	(16b-
.	.	.	.	16aJJ)
.	.	8EL	.	(16aLL
.	.	.	.	16g)
.	.	8GJ	.	(16g
.	.	.	.	16aJJ)
.	.	8FL	.	(16aLL
.	.	.	.	16b-)
.	.	8EJ)	.	(16b-
.	.	.	.	16gJJ)
*	*	*v	*v	*
=88	=88	=88	=88
2.T	2.I	4F	8B-L 8e
.	.	.	8AJ 8f
.	.	4FF	4A 4f
.	.	4r	4r
*-	*-	*-	*-
!!!COM: Mozart
!!!OTL: Sechs Variationen in F uber die Arie 'Salve tu, Domine' aus der Oper 'I filosofi immaginarii' 
!!!Variation: Variation 4a
**function	**harm	**kern	**kern
*	*	*clefF4	*clefG2
*	*	*k[b-e-a-d-]	*k[b-e-a-d-]
*M3/4	*M3/4	*M3/4	*M3/4
*f:	*f:	*f:	*f:
=89	=89	=89	=89
*	*	*^	*
2.T	2.i	4r	[2.F	8r
.	.	.	.	8cc
.	.	4A-	.	8a-
.	.	.	.	4f
.	.	4B-	.	.
.	.	.	.	[8dd-
=90	=90	=90	=90	=90
2.T	2.i	4A-	2.F]	8dd-]
.	.	.	.	4cc
.	.	4G	.	.
.	.	.	.	4b-
.	.	4F	.	.
.	.	.	.	8a-
=91	=91	=91	=91	=91
4T	4i	4r	[2.F	8r
.	.	.	.	(8a-
8T	8V	4c	.	8e)
8T	8i	.	.	4f
4T	4ivc	4d-	.	.
.	.	.	.	[8b-
=92	=92	=92	=92	=92
2.T	2.i	4c	2.F]	8b-]
.	.	.	.	4a-
.	.	4B-	.	.
.	.	.	.	4g
.	.	4A-	.	.
.	.	.	.	8f
*	*	*v	*v	*
=93	=93	=93	=93
2.T	2.V	4CC 4C	8r
.	.	.	8g
.	.	8r	8eL
.	.	(8BB	8BJ
.	.	4C)	8cL
.	.	.	8eJ 8g
=94	=94	=94	=94
2.T	2.ic	8r	[4f [4a-
.	.	8C	.
.	.	2c	(8fL] 8a-]
.	.	.	8eJ 8g
.	.	.	8fL 8a-
.	.	.	8eJ) 8g
=95	=95	=95	=95
2.T	2.ic	4CC 4C	8r
.	.	.	8a-
.	.	8r	8fL
.	.	(8BB	8BJ
.	.	4C)	8cL
.	.	.	8fJ 8a-
=96	=96	=96	=96
2.T	2.V7	8r	4.g 4.b-
.	.	8C	.
.	.	2c	.
.	.	.	8f# 8a
.	.	.	8gL 8b-
.	.	.	8eJ 8g
=97	=97	=97	=97
4T	4i	4F	8fL 8a-
.	.	.	8dd-J
4T	4ib	4A-	8ccL
.	.	.	8fJ
4T	4V	4c	(8eL 8g
.	.	.	8gJ) 8b-
=98	=98	=98	=98
4T	4i	4F	8fL 8a-
.	.	.	8dd-J
4T	4ib	4AA-	8ccL
.	.	.	8fJ
4T	4V7	4C	(8eL 8g
.	.	.	8gJ) 8b-
=99	=99	=99	=99
4T	4i	4F	8fL 8a-
.	.	.	8ffJ
4P	4iiob	4BB-	8gL
.	.	.	8dd-J
4D	4V7	4C 4B-	8ccL
.	.	.	8eJ
=100	=100	=100	=100
2T	2i	4F 4A-	8gL
.	.	.	8fJ
.	.	4FF	8r
.	.	.	8f
*-	*-	*-	*-
!!!COM: Mozart
!!!OTL: Sechs Variationen in F uber die Arie 'Salve tu, Domine' aus der Oper 'I filosofi immaginarii' 
!!!Variation: Variation 4b
**function	**harm	**kern	**kern
*	*	*clefF4	*clefG2
*M3/4	*M3/4	*M3/4	*M3/4
*	*	*k[b-e-a-d-]	*k[b-e-a-d-]
*f:	*f:	*f:	*f:
4P	4V7d/iv	4F 4e-	8gL
.	.	.	8aJ
=101	=101	=101	=101
2.P	2.ivc	4F 4d-	8cc
.	.	.	4b-
.	.	2F 2e	.
.	.	.	(8dd-
.	.	.	8ccL
.	.	.	8b-J)
=102	=102	=102	=102
2.P	2.i	4F 4f	8g
.	.	.	4a-
.	.	4F	.
.	.	.	(8a-
.	.	4r	8b-L
.	.	.	8ccJ)
=103	=103	=103	=103
2P	2VIb	4r	8ee-
.	.	.	4dd-
.	.	4F 4A-	.
.	.	.	8ff
4P	4iio	4G 4B-	8ee-L
.	.	.	8dd-J
=104	=104	=104	=104
2P	2V/VI	4r	8b
.	.	.	4cc
.	.	4A- 4e-	.
.	.	.	8aa-
4P	4V7b/VI	4C 4A-	8ggL
.	.	.	8gg-J
=105	=105	=105	=105
*	*	*^	*
2.T	2.VI	4A-	2.D-	16eeLL
.	.	.	.	16ff
.	.	.	.	16gg-
.	.	.	.	16ffJJ
.	.	4F	.	16ee-LL
.	.	.	.	16dd-
.	.	.	.	16cc
.	.	.	.	16b-JJ
.	.	4d-	.	16aLL
.	.	.	.	16b-
.	.	.	.	16dd-
.	.	.	.	16ffJJ
=106	=106	=106	=106	=106
4T	4Cc/-III	4c	2E-	8.a-L
.	.	.	.	32b-LL
.	.	.	.	32a-JJJ
2T	2V/-III	4B-	.	16gLL
.	.	.	.	16e-
.	.	.	.	16f
.	.	.	.	16gJJ
.	.	4r	4r	16a-LL
.	.	.	.	16b-
.	.	.	.	16cc
.	.	.	.	16dd-JJ
*	*	*v	*v	*
=107	=107	=107	=107
2.T	2.-III	8AA-L	8ee-
.	.	8A-J	4cc 4ee-
.	.	8A-L	.
.	.	8A-J	4cc 4ee-
.	.	8A-L	.
.	.	8A-J	[8dd- [8ff
=108	=108	=108	=108
2.T	2.-III	8A-L	8dd-] 8ff]
.	.	8A-J	4cc 4ee-
.	.	8A-L	.
.	.	8A-J	4b- 4dd-
.	.	8A-L	.
.	.	8A-J	8a- 8cc
=109	=109	=109	=109
2.T	2.-III	8AA-L	8e- 8cc
.	.	8A-J	4e- 4cc
.	.	8A-L	.
.	.	8A-J	4e- 4cc
.	.	8A-L	.
.	.	8A-J	[8f [8dd-
=110	=110	=110	=110
2.T	2.-III	8A-L	8f] 8dd-]
.	.	8A-J	4e- 4cc
.	.	8A-L	.
.	.	8A-J	4d- 4b-
.	.	8A-L	.
.	.	8A-J	8c 8a-
=111	=111	=111	=111
2.P	2.Vm9/iv	8FFL	8e- 8g- 8a
.	.	8FJ	4e- 4g- 4a
.	.	8FL	.
.	.	8FJ	4d- 4f 4a
.	.	8FL	.
.	.	8FJ	8c 8e- 8a
=112	=112	=112	=112
2.P	2.iv	4B- 4d-	16b-LL
.	.	.	16f
.	.	.	16g
.	.	.	16aJJ
.	.	4r	16b-LL
.	.	.	16cc
.	.	.	16dd-
.	.	.	16ee-JJ
.	.	4r	16ffLL
.	.	.	16ee
.	.	.	16ff
.	.	.	16dd-JJ
=113	=113	=113	=113
2.P	2.Vm9/V	8GGL	8f 8a- 8b
.	.	8GJ	4f 4a- 4b
.	.	8GL	.
.	.	8GJ	4e 4g 4b
.	.	8GL	.
.	.	8GJ	8d 8f 8b
=114	=114	=114	=114
2.D	2.V	4c 4e	16ccLL
.	.	.	16g
.	.	.	16a
.	.	.	16bJJ
.	.	4r	16ccLL
.	.	.	16dd
.	.	.	16ee
.	.	.	16ffJJ
.	.	4r	16ggLL
.	.	.	16ee
.	.	.	16dd
.	.	.	16ccJJ
*	*	*clefG2	*
=115	=115	=115	=115
*	*	*M9/4	*M9/4
!adagio	!adagio	!	!
*M9/4	*M9/4	*	*
!	!written in 4/4 but with too many notes	!	!
1P	1Gn	1d- 1f	4b
.	.	.	4.aa-
.	.	.	(16gg
.	.	.	16ff)
.	.	.	(16ee-
.	.	.	16dd-L)
.	.	.	(16cc
.	.	.	16bnJ)
1D	1V	1c 1e	1cc
4D	4V7	4c; 4e; 4g; 4b-;	4bb-;
*-	*- 	*-	*-
!!!COM: Mozart
!!!OTL: Sechs Variationen in F uber die Arie 'Salve tu, Domine' aus der Oper 'I filosofi immaginarii' 
!!!Variation: Variation 5a
**function	**harm	**kern	**kern
*	*	*clefG2	*clefG2
*	*	*k[b-]	*k[b-]
*M3/4	*M3/4	*M3/4	*M3/4
*F:	*F:	*F:	*F
=116	=116	=116	=116
2.T	2.Ib	4a 4cc	[2.ff)
.	.	4.a 4.cc	.
.	.	8b- 8dd	.
=117	=117	=117	=117
2.T	2.Ib	4.a 4.cc	2.ff_
.	.	8g 8b-	.
.	.	4f 4a	.
=118	=118	=118	=118
2.T	2.Ic	4c 4a	2.ff_
.	.	4.c 4.a	.
.	.	8d 8b-	.
=119	=119	=119	=119
2.T	2.Ic	4.c 4.a	2.ff]
.	.	8B- 8g	.
.	.	4A 4f	.
=120	=120	=120	=120
2.T	2.V	4c 4e 4g	[2.ccc
.	.	4c 4e 4g	.
.	.	4c 4e 4g#	.
=121	=121	=121	=121
2.T	2.I	(4.f 4.a	2.ccc_
.	.	8e) 8g#	.
.	.	4f 4a	.
=122	=122	=122	=122
2.T	2.Ic	4c 4f 4a	2.ccc_
.	.	4c 4f 4a	.
.	.	4c 4f# 4a	.
=123	=123	=123	=123
2.T	2.V7c	(4.g 4.b-	2.ccc_
.	.	8f#) 8a	.
.	.	4g 4b-	.
=124	=124	=124	=124
*	*	*^	*
4T	4I	(8.aL	4f	2.ccc_
.	.	16ccJk)	.	.
4T	4Ib	8AL 8f	4r	.
.	.	8AJ 8f	.	.
4T	4V	8cL 8g	4r	.
.	.	8cJ 8g	.	.
=125	=125	=125	=125	=125
4T	4I	(8.aL	4f	2.ccc]
.	.	16ccJk)	.	.
4T	4Ib	8AL 8f	4r	.
.	.	8AJ 8f	.	.
4T	4V	8cL 8g	4r	.
.	.	8cJ 8g	.	.
*	*	*v	*v	*
=126	=126	=126	=126
4T	4I	4f 4a	(32cccLLL
.	.	.	32ddd
.	.	.	32eee
.	.	.	32fffJJ
.	.	.	32eeeLL
.	.	.	32ddd
.	.	.	32ccc
.	.	.	32bb-JJJ
*	*	*clefF4	*
4D	4Cc	4C 4F	32aaLLL
.	.	.	32gg
.	.	.	32ff
.	.	.	32eeJJ
.	.	.	32ddLL
.	.	.	32cc
.	.	.	32b-
.	.	.	32aJJJ)
4D	4V	4C 4E	(32gLLL
.	.	.	32f
.	.	.	32e
.	.	.	32dJJ
.	.	.	32cLL
.	.	.	32B-
.	.	.	32A
.	.	.	32GJJJ)
*-	*- 	*-	*-
!!!COM: Mozart
!!!OTL: Sechs Variationen in F uber die Arie 'Salve tu, Domine' aus der Oper 'I filosofi immaginarii' 
!!!Variation: Variation 5b
**function	**harm	**kern	**kern
*	*	*clefF4	*clefG2
*	*	*k[b-]	*k[b-]
*M3/4	*M3/4	*M3/4	*M3/4
*F:	*F:	*F:	*F
=127	=127	=127	=127
2.T	2.I	[2.F	4a 4cc
.	.	.	4.a 4.cc
.	.	.	8b- 8dd
=128	=128	=128	=128
2.T	2.I	2.F_	4.a 4.cc
.	.	.	8g 8b-
.	.	.	4f 4a
=129	=129	=129	=129
2.T	2.I	2.F_	4c 4a
.	.	.	4.c 4.a
.	.	.	8d 8b-
=130	=130	=130	=130
2.T	2.I	2.F]	4.c 4.a
.	.	.	8B- 8g
.	.	.	4A 4f
=131	=131	=131	=131
2.T	2.V	[2.C	4c 4e 4g
.	.	.	4c 4e 4g
.	.	.	4c 4e 4g#
=132	=132	=132	=132
2.T	2.Ic	2.C_	(4.f 4.a
.	.	.	8e) 8g#
.	.	.	4f 4a
=133	=133	=133	=133
2.T	2.Ic	2.C_	4c 4f 4a
.	.	.	4c 4f 4a
.	.	.	4c 4f# 4a
=134	=134	=134	=134
2.T	2.V7	2.C]	(4.g 4.b-
.	.	.	8f#) 8a
.	.	.	4g 4b-
=135	=135	=135	=135
*	*	*	*^
2T	2I	[2.FF	(8.aL	4f
.	.	.	16ccJk)	.
.	.	.	8AL 8f	4r
.	.	.	8AJ 8f	.
4T	4V	.	8cL 8g	4r
.	.	.	8cJ 8g	.
=136	=136	=136	=136	=136
2T	2I	2.FF]	(8.aL	4f
.	.	.	16ccJk)	.
.	.	.	8AL 8f	4r
.	.	.	8AJ 8f	.
4T	4V	.	8cL 8g	4r
.	.	.	8cJ 8g	.
=137	=137	=137	=137	=137
4T	4viioD7/V/V	4FF#	(8.aL	4e-
.	.	.	16ccJk)	.
2T	2V/V	2GG	2b	2d
=138	=138	=138	=138	=138
4T	4V7b	4EEn	(8.gL	4d-
.	.	.	16b-Jk)	.
2T	2I	2FF	2a	2c
*	*	*	*v	*v
*	*	*	*clefF4
=139	=139	=139	=139
*	*	*M11/4	*M11/4
!coda	!coda	!	!
*M11/4	*M11/4	*	*
1P	1viioD7/V	2.r	2BBB
.	.	.	4DDn
.	.	2.r	4FF
1P	1viioD7/V	.	8AA-L
.	.	.	8BB
.	.	.	8D
.	.	.	8FJ
.	.	4r	16A-LL
*	*	*	*clefG2
.	.	.	16B
.	.	.	16d
.	.	.	16f
.	.	4r	16a-
.	.	.	16b
.	.	.	16dd
.	.	.	16ff
2.P	2.viioD7/V	4r	16aa-
.	.	.	16ff
.	.	.	16dd
.	.	.	16bJJ
.	.	4r	16a-LL
.	.	.	16f
.	.	.	16d
*	*	*	*clefF4
.	.	.	16Bn
.	.	4r	16A-
.	.	.	16F
.	.	.	16D
.	.	.	16BBnJJ
=140	=140	=140	=140
*M23/8	*M23/8	*M23/8	*M23/8
1D	1V	2CC	[2C
.	.	2r	16CLL]
.	.	.	16E
.	.	.	16D
.	.	.	16CJJ
.	.	.	16DLL
.	.	.	16E
.	.	.	16F
.	.	.	16GJ
*	*	*	*clefG2
2D	2V	4r	64fLLL
.	.	.	64g
.	.	.	64an
.	.	.	64b-
.	.	.	64cc
.	.	.	64dd
.	.	.	64ee
.	.	.	64ffJJJ
.	.	.	64ggLLL
.	.	.	64aa
.	.	.	64bb-
.	.	.	64ccc
.	.	.	64ddd
.	.	.	64eeeJ
.	.	.	32fffJJJ
.	.	4.r	16.r;
.	.	.	32ff
.	.	.	8.bb-L
8D	8V	.	.
.	.	.	(48aaLL
.	.	.	48gg
.	.	.	48ffJJJ)
*	*	*clefG2	*
1D	1V7	1c 1e 1b-	2gg
.	.	.	4aa
.	.	.	4bb-
4D	4V7	4r	4bb
*-	*- 	*-	*-
!!!COM: Mozart
!!!OTL: Sechs Variationen in F uber die Arie 'Salve tu, Domine' aus der Oper 'I filosofi immaginarii' 
!!!Variation: Variation 6a
**function	**harm	**kern	**kern
*	*	*clefF4	*clefG2
*	*	*k[b-]	*k[b-]
*M3/4	*M3/4	*M3/4	*M3/4
*F:	*F:	*F:	*F
=141	=141	=141	=141
2.T	2.I	24FLL	24cccLL
.	.	24A	24aa
.	.	24cJ	24ffJ
.	.	24fL	24ccL
.	.	24c	24ff
.	.	24AJJ	24aaJJ
.	.	24FLL	24cccLL
.	.	24A	24aa
.	.	24cJ	24ffJ
.	.	24fL	24ccL
.	.	24c	24ff
.	.	24AJJ	24aaJJ
.	.	24FLL	24cccLL
.	.	24A	24aa
.	.	24cJ	24ffJ
.	.	24FL	24dddL
.	.	24B-	24bb-
.	.	24dJJ	24ffJJ
=142	=142	=142	=142
2.T	2.I	24FLL	24cccLL
.	.	24A	24aa
.	.	24cJ	24ffJ
.	.	24fL	24ccL
.	.	24c	24ff
.	.	24AJJ	24aaJJ
.	.	24FLL	24cccLL
.	.	24A	24aa
.	.	24cJ	24ffJ
.	.	24FL	24bb-L
.	.	24G	24gg
.	.	24B-JJ	24eeJJ
.	.	24FLL	24aaLL
.	.	24A	24ff
.	.	24cJ	24ccJ
.	.	24FL	24aaL
.	.	24A	24ff
.	.	24cJJ	24ccJJ
=143	=143	=143	=143
2.T	2.I	24FLL	24aaLL
.	.	24A	24ff
.	.	24cJ	24ccJ
.	.	24fL	24aL
.	.	24c	24cc
.	.	24AJJ	24ffJJ
.	.	24FLL	24aaLL
.	.	24A	24ff
.	.	24cJ	24ccJ
.	.	24fL	24aL
.	.	24c	24cc
.	.	24AJJ	24ffJJ
.	.	24FLL	24aaLL
.	.	24A	24ff
.	.	24cJ	24ccJ
.	.	24FL	24bb-L
.	.	24B-	24ff
.	.	24dJJ	24ddJJ
=144	=144	=144	=144
2.T	2.I	24FLL	24aaLL
.	.	24A	24ff
.	.	24cJ	24ccJ
.	.	24fL	24aL
.	.	24c	24cc
.	.	24AJJ	24ffJJ
.	.	24FLL	24aaLL
.	.	24A	24ff
.	.	24cJ	24ccJ
.	.	24FL	24ggL
.	.	24G	24ee
.	.	24B-JJ	24b-JJ
.	.	24FLL	24ffLL
.	.	24A	24cc
.	.	24cJ	24aJ
.	.	24FL	24ffL
.	.	24A	24cc
.	.	24cJJ	24aJJ
=145	=145	=145	=145
2.T	2.V	24CLL	24ggLL
.	.	24E	24ee
.	.	24GJ	24ccJ
.	.	24cL	24gL
.	.	24G	24cc
.	.	24EJJ	24eeJJ
.	.	24CLL	24ggLL
.	.	24E	24ee
.	.	24GJ	24ccJ
.	.	24cL	24gL
.	.	24G	24cc
.	.	24EJJ	24eeJJ
.	.	24CLL	24ggLL
.	.	24E	24ee
.	.	24GJ	24ccJ
.	.	24CL	24gg#L
.	.	24E	24ee
.	.	24G#JJ	24ccJJ
=146	=146	=146	=146
2.T	2.Ic	24CLL	24aaLL
.	.	24F	24ff
.	.	24AJ	24ccJ
.	.	24cL	24aL
.	.	24A	24cc
.	.	24FJJ	24ffJJ
.	.	24CLL	24aaLL
.	.	24F	24ff
.	.	24AJ	24ccJ
.	.	24CL	24gg#L
.	.	24E	24ee
.	.	24G#JJ	24ccJJ
.	.	24CLL	24aaLL
.	.	24F	24ff
.	.	24AJ	24ccJ
.	.	24CL	24gg#L
.	.	24E	24ee
.	.	24G#JJ	24ccJJ
=147	=147	=147	=147
2.T	2.Ic	24CLL	24aaLL
.	.	24F	24ff
.	.	24AJ	24ccJ
.	.	24cL	24aL
.	.	24A	24cc
.	.	24FJJ	24ffJJ
.	.	24CLL	24aaLL
.	.	24F	24ff
.	.	24AJ	24ccJ
.	.	24cL	24aL
.	.	24A	24cc
.	.	24FJJ	24ffJJ
.	.	24CLL	24aaLL
.	.	24F	24ff
.	.	24AJ	24ccJ
.	.	24CL	24aaL
.	.	24F#	24ff#
.	.	24AJJ	24ccJJ
=148	=148	=148	=148
2.T	2.V7	24CLL	24bb-LL
.	.	24G	24gg
.	.	24B-J	24eeJ
.	.	24cL	24ccL
.	.	24B-	24ee
.	.	24GJJ	24ggJJ
.	.	24CLL	24bb-LL
.	.	24G	24gg
.	.	24B-J	24ccJ
.	.	24CL	24aaL
.	.	24F#	24ff#
.	.	24AJJ	24ccJJ
.	.	24CLL	24bb-LL
.	.	24G	24gg
.	.	24B-J	24ccJ
.	.	24CL	24ggL
.	.	24E	24ee
.	.	24GJJ	24ccJJ
=149	=149	=149	=149
4T	4I	24FLL	24aaLL
.	.	24A	24ff
.	.	24cJ	24ccJ
.	.	24CL	24cccL
.	.	24F	24ff
.	.	24AJJ	24ccJJ
4T	4Ib	24AALL	24ffLL
.	.	24C	24cc
.	.	24FJ	24aJ
.	.	24AAL	24ff#L
.	.	24C	24cc
.	.	24F#JJ	24aJJ
4T	4V	24CLL	24ggLL
.	.	24E	24ee
.	.	24GJ	24ccJ
.	.	24CL	24gg#L
.	.	24E	24ee
.	.	24G#JJ	24ccJJ
=150	=150	=150	=150
4T	4I	24FLL	24aaLL
.	.	24A	24ff
.	.	24cJ	24ccJ
.	.	24CL	24cccL
.	.	24F	24ff
.	.	24AJJ	24ccJJ
4T	4Ib	24AALL	24ffLL
.	.	24C	24cc
.	.	24FJ	24aJ
.	.	24AAL	24ff#L
.	.	24C	24cc
.	.	24F#JJ	24aJJ
4T	4V	24CLL	24ggLL
.	.	24E	24ee
.	.	24GJ	24ccJ
.	.	24CL	24gg#L
.	.	24E	24ee
.	.	24G#JJ	24ccJJ
=151	=151	=151	=151
8T	8I	24FLL	24aaLL
.	.	24A	24ff
.	.	24cJ	24ccJ
8T	8Ib	24AAL	24ffL
.	.	24C	24cc
.	.	24FJJ	24aJJ
8P	8iib	24BB-LL	24ddLL
.	.	24D	24b-
.	.	24GJ	24gJ
8P	8ii	24GGL	24b-L
.	.	24BB-	24g
.	.	24DJJ	24eJJ
4D	4V7	24CLL	24gLL
.	.	24E	24e
.	.	24GJ	24B-J
.	.	24CCL	24eL
.	.	24GG	24B-
.	.	24CJJ	24GJJ
=152	=152	=152	=152
2T	2I	24FFLL	24aLL
.	.	24AA	24f
.	.	24CJ	24cJ
.	.	24CCL	24ccL
.	.	24FF	24f
.	.	24AAJJ	24cJJ
.	.	24AAALL	24fLL
.	.	24CC	24c
.	.	24FFJ	24AJ
.	.	24AAAL	24f#L
.	.	24CC	24c
.	.	24FF#JJ	24AJJ
*-	*-	*-	*-
!!!COM: Mozart
!!!OTL: Sechs Variationen in F uber die Arie 'Salve tu, Domine' aus der Oper 'I filosofi immaginarii' 
!!!Variation: Variation 6b
**function	**harm	**kern	**kern
*	*	*clefF4	*clefG2
*M3/4	*M3/4	*M3/4	*M3/4
*	*	*k[b-]	*k[b-]
*F:	*F:	*F:	*F
4T	4V	24CCLL	24gLL
.	.	24EE	24e
.	.	24GGJ	24cJ
.	.	24CCL	24g#L
.	.	24EE	24e
.	.	24GG#JJ	24cJJ
=153	=153	=153	=153
4T	4I	24FFLL	24aLL
.	.	24AA	24f
.	.	24CJ	24cJ
.	.	24CCL	24ccL
.	.	24FF	24f
.	.	24AAJJ	24cJJ
4T	4Ib	24AAALL	24fLL
.	.	24CC	24c
.	.	24FFJ	24AJ
.	.	24AAAL	24f#L
.	.	24CC	24c
.	.	24FF#JJ	24AJJ
4T	4V	24CCLL	24gLL
.	.	24EE	24e
.	.	24GGJ	24cJ
.	.	24CCL	24g#L
.	.	24EE	24e
.	.	24GG#JJ	24cJJ
=154	=154	=154	=154
8T	8I	24FFLL	24aLL
.	.	24AA	24f
.	.	24CJ	24cJ
8T	8V7d/IV	24EE-L	24aL
.	.	24FF	24f
.	.	24CJJ	24cJJ
8P	8IV	24DDLL	24b-LL
.	.	24FF	24f
.	.	24BB-J	24dJ
8P	8Lt	24DD-L	24bL
.	.	24FF	24f
.	.	24BBJJ	24d-JJ
8P	8V	24CCLL	24ccLL
.	.	24EE	24e
.	.	24CJ	24cJ
8P	8V7/vi	24AAL	24cc#L
.	.	24E	24g
.	.	24GJJ	24eJJ
=155	=155	=155	=155
8P	8IV	24BB-LL	24ddLL
.	.	24D	24f
.	.	24FJ	24dJ
8P	8viiob	24GGL	24eeL
.	.	24BB-	24b-
.	.	24EJJ	24gJJ
8P	8Ib	24AALL	24ffLL
.	.	24C	24cc
.	.	24FJ	24fJ
8P	8viioD7b/ii	24AAL	24ff#L
.	.	24C	24cc
.	.	24E-JJ	24aJJ
8P	8iib	24BB-LL	24ggLL
.	.	24D	24dd
.	.	24GJ	24b-J
8P	8viioD7/V	24BBL	24aa-L
.	.	24D	24ff
.	.	24FJJ	24ddJJ
=156	=156	=156	=156
*	*	*M39/8	*M39/8
!cadenza	!cadenza	!	!
!	!notated meter change, but rhythms written freely with no barlines. Barlines included here for convenience.	!	!
!	!subsequent meter changes are for reasons of file readability. There are no notated changes of meter. These are interpretations.	!	!
*M39/8	*M39/8	*	*
1.D	1.Ic	2CC; 2C;	2cc; 2ff; 2aa;
.	.	2r	8r
.	.	.	8c
.	.	.	8fL
.	.	.	8a
.	.	2r	8ccJ
.	.	.	8ffL
.	.	.	8aa
.	.	.	8cccJ
1.D	1.Ic	4.r	4fff;
.	.	.	16cccLL
.	.	.	16aaJJ
.	.	1r	16ffLL
.	.	.	16ccc
.	.	.	16aa
.	.	.	16ff
.	.	.	16cc
.	.	.	16aaJJ
.	.	.	16ffLL
.	.	.	16cc
.	.	.	16a
.	.	.	16ff
.	.	.	16cc
.	.	.	16aJJ
.	.	.	16fLL
.	.	.	16cc
.	.	.	16a
.	.	.	16f
.	.	1r	16c
.	.	.	16aJJ
1.D	1.Ic	.	16fLL
.	.	.	16c
.	.	.	16A
.	.	.	16f
.	.	.	16c
.	.	.	16AJJ
*	*	*	*clefF4
.	.	.	16FLL
.	.	.	16c
.	.	.	16A
.	.	.	16F
.	.	.	16C
.	.	.	16AJJ
.	.	.	16FLL
.	.	.	16C
.	.	2r	16AA
.	.	.	16F
.	.	.	16C
.	.	.	16AAJJ
.	.	.	16FFLL
.	.	.	16C
.	.	.	16AA
.	.	.	16FFJJ
.	.	2r	[2CC
4.D	4.Ic	.	.
=157	=157	=157	=157
*M33/8	*M33/8	*M33/8	*M33/8
1D	1Ic	1r	8CCL]
.	.	.	16DDJk
.	.	.	16EELL
.	.	.	16FF
.	.	.	16GGJJ
.	.	.	16AALL
.	.	.	16BB-
.	.	.	16CJJ
.	.	.	16FFLL
.	.	.	16GG
.	.	.	16AAJJ
.	.	.	16BB-LL
.	.	.	16C
.	.	.	16DJJ
.	.	.	16ELL
1D	1Ic	1r	16F
.	.	.	16CJJ
.	.	.	16DLL
.	.	.	16E
.	.	.	16FJJ
.	.	.	16GLL
.	.	.	16A
.	.	.	16B-JJ
.	.	.	16cLL
.	.	.	16F
.	.	.	16G
.	.	.	16A
.	.	.	16B-
.	.	.	16c
.	.	.	16dJJ
.	.	.	16eLL
1D	1Ic	1r	16f
*	*	*	*clefG2
.	.	.	16c
.	.	.	16d
.	.	.	16e
.	.	.	16f
.	.	.	16g
.	.	.	16aLL
.	.	.	16b-
.	.	.	16ccJJ
.	.	.	16fLL
.	.	.	16g
.	.	.	16aJJ
.	.	.	16b-LL
.	.	.	16cc
.	.	.	16ddJJ
.	.	.	16eeLL
1D	1Ic	1r	16ff
.	.	.	16ccJJ
.	.	.	16ddLL
.	.	.	16ee
.	.	.	16ffJJ
.	.	.	16ggLL
.	.	.	16aa
.	.	.	16bb-JJ
.	.	.	16cccLL
.	.	.	16ff
.	.	.	16ggJJ
.	.	.	16aaLL
.	.	.	16bb-
.	.	.	16cccJJ
.	.	.	16dddLL
.	.	.	16eeeJ
8D	8viioD7/V	8BB; 8D; 8F; 8A-;	8fff;
=158	=158	=158	=158
*M27/8	*M27/8	*M27/8	*M27/8
8D	8viioD7/V	8r	16r
.	.	.	16dddJk
4D	4viioD7/V	4r	12bbL
.	.	.	12ddd
.	.	.	12bb
1D	1viioD7/V	1r	12aa-
.	.	.	12bb
.	.	.	12aa-
.	.	.	12ff
.	.	.	12aa-
.	.	.	12ffJ
.	.	.	12ddL
.	.	.	12ff
.	.	.	12dd
.	.	.	12b
.	.	.	12dd
.	.	.	12b
1D	1viioD7/V	1r	12a-
.	.	.	12b
.	.	.	12a-J
.	.	.	12fL
.	.	.	12a-
.	.	.	12f
.	.	.	12d
.	.	.	12f
.	.	.	12d
*	*	*	*clefF4
.	.	.	12B
.	.	.	12d
.	.	.	12BJ
1D	1viioD7/V	1r	12A-
.	.	.	12BL
.	.	.	12A-J
*	*	*	*^
.	.	.	12r	12F
.	.	.	12A-L	12r
.	.	.	12FJ	12r
.	.	.	12r	12D
.	.	.	12FL	12r
.	.	.	12DJ	12r
.	.	.	12r	12BB
.	.	.	12DL	12r
.	.	.	12BBJ	12r
=159	=159	=159	=159	=159
*	*M16/4	*M16/4	*M16/4	*M16/4
1D	1viioD7	1r	12r	12BB-
.	.	.	12D-L	12r
.	.	.	12EJ	12r
.	.	.	12GL	4r
.	.	.	12B-	.
.	.	.	12d-J	.
.	.	.	12r	12G
.	.	.	12B-L	12r
.	.	.	12d-J	12r
*	*	*	*clefG2	*clefG2
.	.	.	12eL	4r
.	.	.	12g	.
.	.	.	12b-J	.
1D	1viioD7	1r	12r	12e
.	.	.	12gL	12r
.	.	.	12b-J	12r
.	.	.	12dd-L	4r
.	.	.	12ee	.
.	.	.	12ggJ	.
.	.	.	12r	12b-
.	.	.	12dd-L	12r
.	.	.	12eeJ	12r
.	.	.	12ggL	4r
.	.	.	12bb-	.
.	.	.	12ddd-J	.
4.D	4.Ib	4r	16cccLL	4a
.	.	.	16ff	.
.	.	.	16fff	.
.	.	.	16ff	.
.	.	8r	16eee	4r
.	.	.	16ff	.
8D	8V7b/IV	(8A	16eee-	.
.	.	.	16ffJJ	.
*	*	*	*v	*v
4.D	4.IV	4B-)	16dddLL
.	.	.	16ff
.	.	.	16fff
.	.	.	16ff
.	.	8r	16eee
.	.	.	16ff
8D	8V7b/IV	(8A	16eee-
.	.	.	16ffJJ
4.D	4.IV	4B-)	16dddLL
.	.	.	16ff
.	.	.	16fff
.	.	.	16ff
.	.	8r	16eee
.	.	.	16ff
8D	8V7b/IV	8AA 8A	16eee-
.	.	.	16ffJJ
8D	8IV	8BB-L 8B-	16dddLL
.	.	.	16ff
8D	8V7b/IV	8AA 8A	16eee-
.	.	.	16ff
8D	8IV	8BB- 8B-	16ddd
.	.	.	16ff
8D	8V7b/IV	8AAJ 8A	16eee-
.	.	.	16ffJJ
=160	=160	=160	=160
*M7/4	*M7/4	*M7/4	*M7/4
4D	4IV	4BB- 4B-	8.ddd;L
.	.	.	16fffk
1D	1ii7b	1BB- 1D 1F 1G	8.gg
.	.	.	16bb-Jk
.	.	.	8.ddL
.	.	.	16ffk
.	.	.	8.b-
.	.	.	16ddk
.	.	.	8.g
.	.	.	16b-Jk
2D	2Ic	2C; 2F; 2A;	[2a;
=	=	=	=
*M21/4	*M21/4	*M29/8	*M29/8
1D	1Ic	1r	16aLL]
.	.	.	16cc
.	.	.	16b-
.	.	.	16aJJ
.	.	.	16b-LL
.	.	.	16cc
.	.	.	16dd
.	.	.	16ee
.	.	.	16ff
.	.	.	16eeJJ
.	.	.	16ddLL
.	.	.	16cc
.	.	.	16dd
.	.	.	16ee
.	.	.	16ff
.	.	.	16ggJJ
1D	1Ic	1r	16aaLL
.	.	.	16gg
.	.	.	16ff
.	.	.	16ee
.	.	.	16ff
.	.	.	16ggJJ
.	.	.	16aaLL
.	.	.	16bb-
.	.	.	16ddd
.	.	.	16ccc
.	.	.	16bb-
.	.	.	16aaJJ
.	.	.	16bb-LL
.	.	.	16ccc
.	.	.	16ddd
.	.	.	16eeeJJ
2D	2Ic	2r	4fff
.	.	.	8r;
.	.	.	(8aaL
1D	1Ic	1r	8bb-
.	.	.	8bb
.	.	.	8ccc
.	.	.	8ccc#
.	.	.	8dddJ
.	.	.	8eee-L
.	.	.	8eee
.	.	.	8fffJ)
8D	8Ic	8r	8r;
=	=	=	=
*M9/8	*M9/8	*M9/8	*M9/8
8D	8ii	8r	16r
.	.	.	16ffLK
1D	1ii	1r	8.bb-;
.	.	.	48aaLL
.	.	.	48gg
.	.	.	48ff#JJ
.	.	.	(16ggL
.	.	.	16ddd
.	.	.	16ccc
.	.	.	16bb-
.	.	.	16aa
.	.	.	16gg
.	.	.	16ff#
.	.	.	16ggJ)
.	.	.	8bb-J
.	.	.	8dd
=	=	=	=
*M4/2	*M4/2	*M4/2	*M4/2
*	*	*clefG2	*
2D	2V7	2c 2b-	2ee
2D	2Ic	2c 2a	2ff
2D	2ctoD7	2c 2d#	2ff#
2D	2V7	2c 2e	2gg
=	=	=	=
*M3/8	*M3/8	*M3/8	*M3/8
4.D	4.V7	4.r	32ggLLL
.	.	.	32aa
.	.	.	32bb-
.	.	.	32aaJJJ
.	.	.	32ggLLL
.	.	.	32ff
.	.	.	32ee
.	.	.	32ddJJ
.	.	.	32ccLL
.	.	.	32b-
.	.	.	32a
.	.	.	32gJJJ
=	=	=	=
*M2/1	*M2/1	*M2/1	*M2/1
*	*	*clefF4	*
1D	1V7	1r	[1g
1D	1V7	1C; 1E; 1B-;	1g]
=	=	=	=
*-	*-	*-	*-
!!!COM: Mozart
!!!OTL: Sechs Variationen in F uber die Arie 'Salve tu, Domine' aus der Oper 'I filosofi immaginarii' 
!!!Variation: Variation 6c coda
**function	**harm	**kern	**kern
*	*	*clefF4	*clefG2
*M3/4	*M3/4	*M3/4	*M3/4
*	*	*k[b-]	*k[b-]
*F:	*F:	*F:	*F
=162	=162	=162	=162
*	*	*	*^
4T	4I	8FFL	8.aL	4f
.	.	8FJ	.	.
.	.	.	16ccJk	.
4T	4Ib	8AAL	8cL 8f	4r
.	.	8AJ	8cJ 8f	.
4T	4V	8CL	8eL 8g	4r
.	.	8cJ	8eJ 8g	.
=163	=163	=163	=163	=163
4T	4I	8FFL	8.aL	4f
.	.	8FJ	.	.
.	.	.	16ccJk	.
4T	4Ib	8AAL	8cL 8f	4r
.	.	8AJ	8cJ 8f	.
4T	4V	8CL	8eL 8g	4r
.	.	8cJ	8eJ 8g	.
=164	=164	=164	=164	=164
4T	4I	4F	8.aL	4f
.	.	.	16ffJk	.
4T	4ii7b	4BB- 4B-	8.gL	4d
.	.	.	16ddJk	.
4T	4V7	4C 4c	8.ccL	4e
.	.	.	16b-Jk	.
=165	=165	=165	=165	=165
2.T	2.vi	2D 2d	2b-	2e
.	.	4r	4a	4f
*	*	*	*v	*v
*	*	*clefG2	*
=166	=166	=166	=166
4T	4I	8FL	16aaLL
.	.	.	16bb-
.	.	8fJ	16bb
.	.	.	16cccJJ
4T	4Ib	8AL	8ffL
.	.	8aJ	8ffJ
4T	4V	8cL	8ggL
.	.	8ccJ	8ggJ
=167	=167	=167	=167
4T	4I	8FL	16aaLL
.	.	.	16bb-
.	.	8fJ	16bb
.	.	.	16cccJJ
4T	4Ib	8AL	8ffL
.	.	8aJ	8ffJ
4T	4V	8cL	8ggL
.	.	8ccJ	8ggJ
=168	=168	=168	=168
4T	4Ib	4f 4ff	(8.aaL
.	.	.	16fffJk)
4P	4iib	4B- 4g 4dd	(8.ggL
.	.	.	16dddJk)
4D	4V7	4c 4g	(8.cccL
.	.	.	16eeJk)
=169	=169	=169	=169
2.T	2.I	4f 4a	4ff
.	.	2r	4r
.	.	.	4r
*	*	*clefF4	*
=170	=170	=170	=170
4T	4Ib	4AA 4F	(8.aL
.	.	.	16ffJk)
4T	4iib	4BB- 4G	(8.gL
.	.	.	16ddJk)
4T	4V7	4C 4B-	(8.ccL
.	.	.	16eJk)
=171	=171	=171	=171
2.T	2.I	4F 4A	4f
.	.	4r	4r
.	.	4r	4r
*	*	*	*clefF4
=172	=172	=172	=172
4T	4Ib	4D	(16ALK
.	.	.	8.fJ)
4T	4iib	4BB-	(16GLK
.	.	.	8.dJ)
4T	4V	4C	(16cLK
.	.	.	8.EJ)
=173	=173	=173	=173
2.T	2.I	4FF	4F
.	.	4r	4r
.	.	4r	4r
=174	=174	=174	=174
4T	4vi	4DD	(16AALK
.	.	.	8.FJ)
4T	4iib	4BBB-	(16GGLK
.	.	.	8.DJ)
4T	4V	4CC	(16CLK
.	.	.	8.EEJ)
=175	=175	=175	=175
2.T	2.V7/IV	2.FFF 2.FF	(16ALK
.	.	.	8.e-J)
.	.	.	(16dLK
.	.	.	8.B-J)
.	.	.	(16ALK
.	.	.	8.c#J)
=176	=176	=176	=176
4T	4IVc	2.FFF 2.FF	(16dLK
.	.	.	8.B-J)
2T	2I	.	(16ALK
.	.	.	8.cJ)
.	.	.	(16BLK
.	.	.	8.G#J)
=177	=177	=177	=177
4T	4I	2.FFF 2.FF	(16ALK
.	.	.	8.cJ)
4T	4ii7d	.	(16B-LK
.	.	.	8.GJ)
4T	4I	.	(16FLK
.	.	.	8.AJ)
=178	=178	=178	=178
.	.	.	(q64E
.	.	.	q64G
2.T	2.V7	4r	4B-)
.	.	4CC	4G 4B-
.	.	4CC	4G 4B-
=179	=179	=179	=179
2.T	2.I	[2.FFF [2.FF	(2.E 2.G 2.B-
=180	=180	=180	=180
2.T	2.I	4FFF] 4FF]	4F) 4A
.	.	4r	4r
.	.	4r	4r
==	==	==	==
*-	*-	*-	*-
